src/pos-icons/lock-open-outline.svg

<svg height="24" viewBox="0 0 24 24" width="24" xmlns="http://www.w3.org/2000/svg"><path d="m18 20v-10h-12v10zm0-12a2 2 0 0 1 2 2v10a2 2 0 0 1 -2 2h-12c-1.11 0-2-.9-2-2v-10a2 2 0 0 1 2-2h9v-2a3 3 0 0 0 -3-3 3 3 0 0 0 -3 3h-2a5 5 0 0 1 5-5 5 5 0 0 1 5 5v2zm-6 9a2 2 0 0 1 -2-2 2 2 0 0 1 2-2 2 2 0 0 1 2 2 2 2 0 0 1 -2 2z"/></svg>

<?xml version="1.0" encoding="UTF-8"?><!DOCTYPE svg PUBLIC "-//W3C//DTD SVG 1.1//EN" "http://www.w3.org/Graphics/SVG/1.1/DTD/svg11.dtd"><svg xmlns="http://www.w3.org/2000/svg" xmlns:xlink="http://www.w3.org/1999/xlink" version="1.1" id="mdi-lock-open-outline" width="24" height="24" viewBox="0 0 24 24"><path d="M18,20V10H6V20H18M18,8A2,2 0 0,1 20,10V20A2,2 0 0,1 18,22H6C4.89,22 4,21.1 4,20V10A2,2 0 0,1 6,8H15V6A3,3 0 0,0 12,3A3,3 0 0,0 9,6H7A5,5 0 0,1 12,1A5,5 0 0,1 17,6V8H18M12,17A2,2 0 0,1 10,15A2,2 0 0,1 12,13A2,2 0 0,1 14,15A2,2 0 0,1 12,17Z" /></svg>
